**harm	**harte	**timestamp	**phrase	**leadinstrument	**kern
*M4/4	*M4/4	*	*	*	*
*d:	*d:	*	*	*	*d:
1r;	N	0	.	r	1r;
=1	=1	=1	=1	=1	=1
*>A_intro	*>A_intro	*>A_intro	*>A_intro	*>A_intro	*>A_intro
1r	N	0.511	newline	r	1r
=2	=2	=2	=2	=2	=2
1i7	D:min7	2.694	newline	r	1D 1f 1a 1cc#
=3	=3	=3	=3	=3	=3
1i7	D:min7	4.753	.	r	1D 1f 1a 1cc#
=4	=4	=4	=4	=4	=4
1i7	D:min7	6.812	.	r	1D 1f 1a 1cc#
=5	=5	=5	=5	=5	=5
1i7	D:min7	8.872	.	r	1D 1f 1a 1cc#
=6	=6	=6	=6	=6	=6
1i	D:min	10.931	newline	r	1D 1f 1a
=7	=7	=7	=7	=7	=7
1i	D:min	13.009	.	r	1D 1f 1a
=8	=8	=8	=8	=8	=8
1i	D:min	15.086	.	r	1D 1f 1a
=9	=9	=9	=9	=9	=9
1i	D:min	17.164	.	r	1D 1f 1a
=10	=10	=10	=10	=10	=10
1r	N	19.242	newline	r	1r
=11	=11	=11	=11	=11	=11
*>B_chorus	*>B_chorus	*>B_chorus	*>B_chorus	*>B_chorus	*>B_chorus
1i	D:min	21.373	newline	voice	1D 1f 1a
=12	=12	=12	=12	=12	=12
1i	D:min	23.447	.	voice	1D 1f 1a
=13	=13	=13	=13	=13	=13
1-VI	B-:maj	25.521	.	voice	1B-- 1dd- 1ff-
=14	=14	=14	=14	=14	=14
1V7	A:7	27.595	.	voice	1A 1cc# 1ee 1gg
=15	=15	=15	=15	=15	=15
1i	D:min	29.669	newline	voice	1D 1f 1a
=16	=16	=16	=16	=16	=16
1i	D:min	31.749	.	voice	1D 1f 1a
=17	=17	=17	=17	=17	=17
1-VI	B-:maj	33.828	.	voice	1B-- 1dd- 1ff-
=18	=18	=18	=18	=18	=18
2V7	A:7(b9)	35.908	.	voice	2A 2cc# 2ee 2gg
2V7	A:7	36.948	.	voice	2A 2cc# 2ee 2gg
=19	=19	=19	=19	=19	=19
*>C_verse	*>C_verse	*>C_verse	*>C_verse	*>C_verse	*>C_verse
1i	D:min	37.988	newline	voice	1D 1f 1a
=20	=20	=20	=20	=20	=20
1i	D:min	40.071	.	voice	1D 1f 1a
=21	=21	=21	=21	=21	=21
1-VI	B-:maj	42.154	.	voice	1B-- 1dd- 1ff-
=22	=22	=22	=22	=22	=22
1V7	A:7	44.237	.	voice	1A 1cc# 1ee 1gg
=23	=23	=23	=23	=23	=23
1i	D:min	46.32	newline	voice	1D 1f 1a
=24	=24	=24	=24	=24	=24
1i	D:min	48.403	.	voice	1D 1f 1a
=25	=25	=25	=25	=25	=25
1-VI	B-:maj	50.487	.	voice	1B-- 1dd- 1ff-
=26	=26	=26	=26	=26	=26
2V7	A:7(b9)	52.57	.	voice	2A 2cc# 2ee 2gg
2V7	A:7	53.612	.	voice	2A 2cc# 2ee 2gg
=27	=27	=27	=27	=27	=27
1i	D:min	54.654	newline	voice	1D 1f 1a
=28	=28	=28	=28	=28	=28
1viio7b	C#:dim7/b3	56.746	.	voice	1c# 1E 1g 1b-
=29	=29	=29	=29	=29	=29
1iv7	G:min7	58.838	.	voice	1G 1b- 1dd 1ff
=30	=30	=30	=30	=30	=30
1v	A:sus4	60.93	.	voice	1A 1cc 1ee
=31	=31	=31	=31	=31	=31
1iv7	G:min7	63.022	newline	voice	1G 1b- 1dd 1ff
=32	=32	=32	=32	=32	=32
1V7	A:7	65.109	.	voice	1A 1cc# 1ee 1gg
=33	=33	=33	=33	=33	=33
1-VI7	B-:maj7	67.195	.	voice	1B-- 1dd- 1ff- 1aa
=34	=34	=34	=34	=34	=34
2-VII	C:maj	69.282	.	voice	2C 2e 2g
2V7b	A:7/3	70.325	.	voice	2a 2C# 2ee 2gg
=35	=35	=35	=35	=35	=35
*>B_chorus	*>B_chorus	*>B_chorus	*>B_chorus	*>B_chorus	*>B_chorus
1i	D:min	71.368	newline	voice	1D 1f 1a
=36	=36	=36	=36	=36	=36
1i	D:min	73.435	.	voice	1D 1f 1a
=37	=37	=37	=37	=37	=37
1-VI	B-:maj	75.502	.	voice	1B-- 1dd- 1ff-
=38	=38	=38	=38	=38	=38
1V7	A:7	77.569	.	voice	1A 1cc# 1ee 1gg
=39	=39	=39	=39	=39	=39
1i	D:min	79.636	newline	voice	1D 1f 1a
=40	=40	=40	=40	=40	=40
1i	D:min	81.728	.	voice	1D 1f 1a
=41	=41	=41	=41	=41	=41
1-VI	B-:maj	83.82	.	voice	1B-- 1dd- 1ff-
=42	=42	=42	=42	=42	=42
2V7	A:7(b9)	85.912	.	voice	2A 2cc# 2ee 2gg
2V7	A:7	86.958	.	voice	2A 2cc# 2ee 2gg
=43	=43	=43	=43	=43	=43
1r	N	88.004	newline	voice	1r
=44	=44	=44	=44	=44	=44
*>D_solo	*>D_solo	*>D_solo	*>D_solo	*>D_solo	*>D_solo
1r	N	90.111	newline	voice	1r
=45	=45	=45	=45	=45	=45
1r	N	92.18	.	voice	1r
=46	=46	=46	=46	=46	=46
1r	N	94.249	.	voice	1r
=47	=47	=47	=47	=47	=47
1r	N	96.317	.	voice	1r
=48	=48	=48	=48	=48	=48
*>C_verse	*>C_verse	*>C_verse	*>C_verse	*>C_verse	*>C_verse
1i	D:min	98.386	newline	voice	1D 1f 1a
=49	=49	=49	=49	=49	=49
1i	D:min	100.472	.	voice	1D 1f 1a
=50	=50	=50	=50	=50	=50
1-VI	B-:maj	102.559	.	voice	1B-- 1dd- 1ff-
=51	=51	=51	=51	=51	=51
1V7	A:7	104.645	.	voice	1A 1cc# 1ee 1gg
=52	=52	=52	=52	=52	=52
1i	D:min	106.731	newline	voice	1D 1f 1a
=53	=53	=53	=53	=53	=53
1i	D:min	108.808	.	voice	1D 1f 1a
=54	=54	=54	=54	=54	=54
1-VI	B-:maj	110.885	.	voice	1B-- 1dd- 1ff-
=55	=55	=55	=55	=55	=55
2V7	A:7(b9)	112.962	.	voice	2A 2cc# 2ee 2gg
2V7	A:7	114	.	voice	2A 2cc# 2ee 2gg
=56	=56	=56	=56	=56	=56
1i	D:min	115.039	newline	voice	1D 1f 1a
=57	=57	=57	=57	=57	=57
1viio7b	C#:dim7/b3	117.107	.	voice	1c# 1E 1g 1b-
=58	=58	=58	=58	=58	=58
1iv7	G:min7	119.175	.	voice	1G 1b- 1dd 1ff
=59	=59	=59	=59	=59	=59
1v	A:sus4	121.244	.	voice	1A 1cc 1ee
=60	=60	=60	=60	=60	=60
1iv7	G:min7	123.312	newline	voice	1G 1b- 1dd 1ff
=61	=61	=61	=61	=61	=61
1V7	A:7	125.412	.	voice	1A 1cc# 1ee 1gg
=62	=62	=62	=62	=62	=62
1-VI7	B-:maj7	127.512	.	voice	1B-- 1dd- 1ff- 1aa
=63	=63	=63	=63	=63	=63
2-VII	C:maj	129.612	.	voice	2C 2e 2g
2V7b	A:7/3	130.662	.	voice	2a 2C# 2ee 2gg
=64	=64	=64	=64	=64	=64
*>B_chorus	*>B_chorus	*>B_chorus	*>B_chorus	*>B_chorus	*>B_chorus
1i	D:min	131.712	newline	voice	1D 1f 1a
=65	=65	=65	=65	=65	=65
1i	D:min	133.801	.	voice	1D 1f 1a
=66	=66	=66	=66	=66	=66
1-VI	B-:maj	135.89	.	voice	1B-- 1dd- 1ff-
=67	=67	=67	=67	=67	=67
1V7	A:7	137.98	.	voice	1A 1cc# 1ee 1gg
=68	=68	=68	=68	=68	=68
1i	D:min	140.069	newline	voice	1D 1f 1a
=69	=69	=69	=69	=69	=69
1i	D:min	142.146	.	voice	1D 1f 1a
=70	=70	=70	=70	=70	=70
1-VI	B-:maj	144.224	.	voice	1B-- 1dd- 1ff-
=71	=71	=71	=71	=71	=71
2V7	A:7(b9)	146.302	.	voice	2A 2cc# 2ee 2gg
2V7	A:7	147.341	.	voice	2A 2cc# 2ee 2gg
=72	=72	=72	=72	=72	=72
*>E_instrumental	*>E_instrumental	*>E_instrumental	*>E_instrumental	*>E_instrumental	*>E_instrumental
1i	D:min	148.379	newline	voice	1D 1f 1a
=73	=73	=73	=73	=73	=73
1i	D:min	150.451	.	voice	1D 1f 1a
=74	=74	=74	=74	=74	=74
1i	D:min	152.522	.	voice	1D 1f 1a
=75	=75	=75	=75	=75	=75
1i	D:min	154.593	.	voice	1D 1f 1a
=76	=76	=76	=76	=76	=76
1i	D:min	156.664	newline	voice	1D 1f 1a
=77	=77	=77	=77	=77	=77
1i	D:min	158.748	.	voice	1D 1f 1a
=78	=78	=78	=78	=78	=78
1i	D:min	160.831	.	voice	1D 1f 1a
=79	=79	=79	=79	=79	=79
1i	D:min	162.915	.	voice	1D 1f 1a
=80	=80	=80	=80	=80	=80
1r	N	164.998	newline	voice	1r
=81	=81	=81	=81	=81	=81
*>D_solo	*>D_solo	*>D_solo	*>D_solo	*>D_solo	*>D_solo
1r	N	167.139	newline	voice	1r
=82	=82	=82	=82	=82	=82
1r	N	169.211	.	voice	1r
=83	=83	=83	=83	=83	=83
1r	N	171.282	.	voice	1r
=84	=84	=84	=84	=84	=84
1r	N	173.354	.	voice	1r
=85	=85	=85	=85	=85	=85
1r	N	175.425	newline	voice	1r
=86	=86	=86	=86	=86	=86
1r	N	177.509	.	voice	1r
=87	=87	=87	=87	=87	=87
1r	N	179.593	.	voice	1r
=88	=88	=88	=88	=88	=88
1r	N	181.677	.	voice	1r
=89	=89	=89	=89	=89	=89
*>F_interlude	*>F_interlude	*>F_interlude	*>F_interlude	*>F_interlude	*>F_interlude
1i	D:min	183.761	newline	voice	1D 1f 1a
=90	=90	=90	=90	=90	=90
1i	D:min	185.836	.	voice	1D 1f 1a
=91	=91	=91	=91	=91	=91
1-VI	B-:maj	187.91	.	voice	1B-- 1dd- 1ff-
=92	=92	=92	=92	=92	=92
1V7	A:7	189.984	.	voice	1A 1cc# 1ee 1gg
=93	=93	=93	=93	=93	=93
1i	D:min	192.058	newline	voice	1D 1f 1a
=94	=94	=94	=94	=94	=94
1i	D:min	194.154	.	voice	1D 1f 1a
=95	=95	=95	=95	=95	=95
1-VI	B-:maj	196.25	.	voice	1B-- 1dd- 1ff-
=96	=96	=96	=96	=96	=96
1V7	A:7	198.345	.	voice	1A 1cc# 1ee 1gg
=97	=97	=97	=97	=97	=97
*>B_chorus	*>B_chorus	*>B_chorus	*>B_chorus	*>B_chorus	*>B_chorus
1i	D:min	200.441	newline	voice	1D 1f 1a
=98	=98	=98	=98	=98	=98
1i	D:min	202.507	.	voice	1D 1f 1a
=99	=99	=99	=99	=99	=99
1-VI	B-:maj	204.573	.	voice	1B-- 1dd- 1ff-
=100	=100	=100	=100	=100	=100
1V7	A:7	206.638	.	voice	1A 1cc# 1ee 1gg
=101	=101	=101	=101	=101	=101
1i	D:min	208.704	newline	voice	1D 1f 1a
=102	=102	=102	=102	=102	=102
1i	D:min	210.784	.	voice	1D 1f 1a
=103	=103	=103	=103	=103	=103
1-VI	B-:maj	212.863	.	voice	1B-- 1dd- 1ff-
=104	=104	=104	=104	=104	=104
2V7	A:7(b9)	214.943	.	voice	2A 2cc# 2ee 2gg
2V7	A:7	215.983	.	voice	2A 2cc# 2ee 2gg
=105	=105	=105	=105	=105	=105
1r	N	217.023	newline	voice	1r
=106	=106	=106	=106	=106	=106
*>E2_coda	*>E2_coda	*>E2_coda	*>E2_coda	*>E2_coda	*>E2_coda
1i	D:min	219.152	newline	voice	1D 1f 1a
=107	=107	=107	=107	=107	=107
1i	D:min	221.228	.	voice	1D 1f 1a
=108	=108	=108	=108	=108	=108
1i	D:min	223.304	.	voice	1D 1f 1a
=109	=109	=109	=109	=109	=109
1i	D:min	225.38	.	voice	1D 1f 1a
=110	=110	=110	=110	=110	=110
2V7	A:7(b9)	227.456	newline	voice	2A 2cc# 2ee 2gg
2V7	A:7	228.293	.	voice	2A 2cc# 2ee 2gg
=111	=111	=111	=111	=111	=111
1i	D:min	229.131	.	voice	1D 1f 1a
1r;	N	230.806	.	r	1r;
1r;	N	234.24	.	r	1r;
*-	*-	*-	*-	*-	*-
!!!OTL: Motownphilly
!!!COC: Boyz II Men
!!!BillboardChartDate: 1991/08/10
!!!BillboardPeak: 3
!!!BillboardWeeksOnChart: 24
!!!SampleTargetRank: 14
!!!SampleActualRank: 14
!!!SampleID#: 0097
!!!RDF**harmony: **recip + pitch class of root + harmonic quality
!!!RDF**harte: Chris Harte's syntax, used by MIREX
!!!RDF**phrase: newline = linebreak in original McGill transcription
!!!RDF**timestamp: McGill audio timestamp in seconds
!!!RDF**leadinstrument: original McGill primary instrumentation annotation
!!!RDT: 2017/01/12/
!!!ENC: Nathaniel Condit-Schultz
!!!EST: Awating manual error checking and editing.
